X:1
T:James Gibb editions
T:#
%%score { 1 | 2 } 3
L:1/8
Q:1/4=104
M:4/4
K:F
V:1 treble nm="Soprano I" snm="S"
V:2 treble 
V:3 treble nm="Alto" snm="A"
V:1
"^Regina coeli, op.17/3""^Ciro Grassi\n (1868-1952)""^moderato" z4 z2 z3/2!f! c/ | f2 d2 c2 cd | %2
w: Re-|gi- na coe- li lae-|
 G4 A4 |[Q:1/4=114] z8 |!f! Bc"^rall." (de)[Q:1/4=104] !fermata!f4 | %5
w: ta- re,||al- le- lu\- * ja:|
[M:4/4]!p! f4"^,""^tempo Imo" d2 A2 | d3 d d2 dc | B4"^," A4 | %8
w: qui- a quem|me- ru- i- sti por-|ta- re,|
"^più mosso"!f![Q:1/4=114] G3 G (B2 d2 | g2 f2"^rall."[Q:1/4=111] _e2[Q:1/4=107] d[Q:1/4=105]c) | %10
w: al- le- lu\- *||
[Q:1/4=104] !fermata!d8 |"^tempo Imo"!ff! c3 c A2 G2 | c2 d2 f4 | %13
w: ja.|Re- sur- re- xit|si- cut di-|
"^," e4"^più mosso"[Q:1/4=114] g3 g | (e2 c2)"^," d4 | g3 g (f2 e2 | d8) | !fermata!e8 | %18
w: xit, al- le-|lu\- * ja,|al- le- lu\- *||ja.|
!pp!"^lento"[Q:1/4=80] f4"^," d2 d2 |[Q:1/4=80][Q:1/4=80] f4"^," c4 | (d3 e f2 g2) | %21
w: O- ra pro|no- bis,|De\- * * *|
 c4"^vivace"[Q:1/4=114] z4 | z4!f! (Bc) (de) | f2"^," f2 e3"^rall."[Q:1/4=113] e | %24
w: um,|al\- * le\- *|lu- ja, al- le-|
[Q:1/4=112] (g2[Q:1/4=109] d4[Q:1/4=107] e2) |[Q:1/4=103] !fermata!f8 |] %26
w: lu\- * *|ja.|
V:2
 z4 z2 z3/2!f! A/ | c2 B2 A2 FF | (F2 E2)"^," F4 |"^più mosso" (FG) (AB) c2 c2 | %4
w: Re-|gi- na coe- li lae-|ta\- * re,|al\- * le\- * lu- ja,|
 BB B2 !fermata!A4 |[M:4/4]!p! A4"^," F2 F2 | ^F3 F F2 EF | G4 ^F4 | z4 z2!f! BA | (G2 A=B c4) | %10
w: al- le- lu- ja:|qui- a quem|me- ru- i- sti por-|ta- re,|al- le-|lu\- * * *|
 !fermata!=B8 |!ff! c3 c A2 G2 | G2 =B2 (A2 B2) | c4 z4 | c3 c (=B2 G2) |"^," c4 c2 c2 | %16
w: ja.|Re- sur- re- xit|si- cut di\- *|xit,|al- le- lu\- *|ja, al- le-|
 (c2 A2 =B4) | !fermata!c8 |!pp! d4"^," _B2 B2 | c4 A4 | B8 | A4!f! (FG) (AB) | c2 c2 z4 | %23
w: lu\- * *|ja.|O- ra pro|no- bis,|De-|um, al\- * le\- *|lu- ja,|
 (FG) (AB) c2 c2 | z2 BB B4 | !fermata!A8 |] %26
w: al\- * le\- * lu- ja,|al- le- lu-|ja.|
V:3
 z4 z2 z3/2!f! F/ | A2 B2 F2 A,B, | C4 F4 | z4 (CD) (EF) | G4 !fermata!F4 | %5
w: Re-|gi- na coe- li lae-|ta- re,|Al\- * le\- *|lu- ja:|
[M:4/4]!p! D4"^," D2 D2 | C3 C C2 B,A, | (G,A,B,C) D4 | z4 z2!f! GF | (_E3 D C4) | !fermata!G8 | %11
w: qui- a quem|me- ru- i- sti por-|ta\- * * * re,|al- le-|lu\- * *|ja.|
!ff! c3 c A2 G2 | E2 G2 (F2 D2) | C4 z4 | z4 G3 G | E2"^," C2 A2 G2 | (F4 G4) | !fermata!c8 | %18
w: Re- sur- re- xit|si- cut di\- *|xit,|al- le-|lu- ja, al- le-|lu\- *|ja.|
!pp! _B4"^," B2 B2 | A4 A4 | (G3 C D2 E2) | F4 z4 |!f! (CD) (EF) G2"^," G2 | (DE) (FG) A2 A2 | %24
w: O- ra pro|no- bis,|De\- * * *|um,|al\- * le\- * lu- ja,|al\- * le\- * lu- ja,|
 z2 BA G4 | !fermata!F8 |] %26
w: al- le- lu-|ja.|

